X:14
T:Les mots que tu nous dis - E164
C:C. Duchesneau
M:C
L:1/4
K:Bm
F|"Sim"B,CDF|E3C|FEDC|D2D F|B,CDF|E3C|FEDC|D3 F|
BAGB|A2AF|DDEE|F3 F|BAGB|A3 F|DEDC|B,3||
